Resources/Public/Icons/Extension.svg

<?xml version="1.0" encoding="UTF-8" standalone="no"?>
<svg
   xmlns:dc="http://purl.org/dc/elements/1.1/"
   xmlns:cc="http://creativecommons.org/ns#"
   xmlns:rdf="http://www.w3.org/1999/02/22-rdf-syntax-ns#"
   xmlns:svg="http://www.w3.org/2000/svg"
   xmlns="http://www.w3.org/2000/svg"
   xmlns:sodipodi="http://sodipodi.sourceforge.net/DTD/sodipodi-0.dtd"
   xmlns:inkscape="http://www.inkscape.org/namespaces/inkscape"
   preserveAspectRatio="xMidYMid"
   width="1200"
   height="1200"
   viewBox="0 0 1200 1200"
   id="svg2"
   version="1.1"
   inkscape:version="0.91 r13725"
   sodipodi:docname="news_importicsxml.svg"
   inkscape:export-filename="F:\Web-Manager\CMS\TYPO3\My-Extensions\_news\artwork\full\news_importicsxml.png"
   inkscape:export-xdpi="391"
   inkscape:export-ydpi="391">
  <metadata
     id="metadata14">
    <rdf:RDF>
      <cc:Work
         rdf:about="">
        <dc:format>image/svg+xml</dc:format>
        <dc:type
           rdf:resource="http://purl.org/dc/dcmitype/StillImage" />
        <dc:title />
      </cc:Work>
    </rdf:RDF>
  </metadata>
  <sodipodi:namedview
     pagecolor="#ffffff"
     bordercolor="#666666"
     borderopacity="1"
     objecttolerance="10"
     gridtolerance="10"
     guidetolerance="10"
     inkscape:pageopacity="0"
     inkscape:pageshadow="2"
     inkscape:window-width="1391"
     inkscape:window-height="780"
     id="namedview12"
     showgrid="false"
     inkscape:zoom="0.28955284"
     inkscape:cx="-243.73162"
     inkscape:cy="968.88775"
     inkscape:window-x="1700"
     inkscape:window-y="57"
     inkscape:window-maximized="0"
     inkscape:current-layer="svg2" />
  <defs
     id="defs4">
    <style
       id="style6">.cls-1 { fill: #919de1; } .cls-2 { fill: #fff; fill-rule: evenodd; }</style>
  </defs>
  <path
     d="m 599.99932,587.50287 -217.50042,0 0,-217.5001 217.50042,0 0,217.5001 z m -290.00098,144.99966 0,72.49915 362.50157,0 0,-72.49784 -362.50157,0 z m 0,-435.00025 0,362.49976 362.50157,0 0,-362.49976 -362.50157,0 z m 435.00079,435.00025 0,72.49915 290.00107,0 0,-72.49784 -290.00107,0 z m 0,-144.99966 0,72.49917 290.00107,0 0,-72.49917 -290.00107,0 z m 0,-145.00095 0,72.50048 290.00107,0 0,-72.50048 -290.00107,0 z m 0,-144.99964 0,72.50049 290.00107,0 0,-72.50049 -290.00107,0 z m -590.7611,569.23811 c -7.17626,7.17628 -15.67309,10.76176 -25.48784,10.76176 -9.824,0 -18.31819,-3.58548 -25.48784,-10.76176 -7.17894,-7.16963 -10.761772,-15.66513 -10.761772,-25.48913 l 0,-543.7503 72.499242,0 0,543.75163 c 0,9.82267 -3.59212,18.31817 -10.76179,25.4878 z m 942.49967,0 c -7.1789,7.17628 -15.6733,10.76176 -25.4879,10.76176 l -839.98129,0 c 4.15237,-11.70082 6.23189,-23.78845 6.23189,-36.25221 l 0,-616.24548 869.999,0 0,616.24813 c 0,9.82532 -3.5935,18.32082 -10.7617,25.49046 z m -931.73788,-714.23642 0,72.49918 -144.99982,0 0,616.24811 c 0,30.21239 10.567068,55.88698 31.71975,77.03035 C 72.86183,939.4342 98.536437,950 128.75019,950 l 942.49961,0 c 30.2045,0 55.8792,-10.56696 77.0307,-31.71839 C 1169.4236,897.13824 1180,871.46498 1180,841.24994 l 0,-688.74994 -1015.00018,0 z"
     class="cls-2"
     id="path10"
     style="fill:#919de1;fill-opacity:1;fill-rule:evenodd"
     inkscape:connector-curvature="0" />
  <path
     inkscape:connector-curvature="0"
     d="m 1195,864.99999 c 0,59.86979 -14.7525,115.08461 -44.2578,165.64461 -29.5052,50.5597 -69.5379,90.5924 -120.0976,120.0976 C 980.0846,1180.2475 924.86981,1195 865,1195 805.13021,1195 749.9154,1180.2475 699.35544,1150.7422 648.79562,1121.237 608.76305,1081.2043 579.25788,1030.6446 549.75258,980.0846 535,924.86978 535,864.99999 535,805.13019 549.75258,749.91535 579.25788,699.35546 608.76305,648.79555 648.79562,608.76301 699.35544,579.2578 749.9154,549.75258 805.13021,534.99998 865,534.99998 c 59.86981,0 115.0846,14.7526 165.6446,44.25782 50.56,29.50521 90.5924,69.53775 120.0976,120.09766 C 1180.2475,749.91535 1195,805.13019 1195,864.99999 Z"
     id="path4"
     sodipodi:nodetypes="sssssssssssss"
     style="fill:#048204;fill-opacity:1" />
  <path
     inkscape:connector-curvature="0"
     id="path5"
     d="m 1033.5612,633.86103 c 0,4.49157 -2.5695,8.6105 -6.7865,10.37581 l 0,0 c -3.0598,1.29444 -75.65124,33.65757 -90.02814,154.6564 -3.05979,25.20398 -4.62906,55.38992 -4.9036,92.0485 l 90.47914,0 c 4.1782,0 7.9637,2.25563 9.9641,5.96269 1.9222,3.68739 1.6476,8.10056 -0.6478,11.53301 L 875.15787,1140.9026 c -2.09868,3.1384 -5.62927,4.9819 -9.33634,4.9819 -3.74618,0 -7.15906,-1.8435 -9.35596,-4.9819 L 699.96591,908.33936 c -2.37334,-3.43244 -2.5302,-7.80636 -0.56771,-11.53302 2.00058,-3.72668 5.78611,-5.94306 9.84611,-5.94306 l 84.203,0 c 6.59036,-50.56489 45.70058,-268.20186 228.97389,-268.20186 5.3153,0 9.9638,3.74623 11.0229,9.00286 0.1174,0.7256 0.1174,1.49063 0.1174,2.19675 z"
     style="fill:#ffffff"
     sodipodi:nodetypes="cccccscccscccscsccc" />
</svg>

<svg xmlns="http://www.w3.org/2000/svg" width="1200" height="1200" preserveAspectRatio="xMidYMid">
  <path fill="#919de1" fill-rule="evenodd" d="M600 587.503H382.498v-217.5h217.5v217.5zm-290.002 145v72.499H672.5v-72.498H309.998zm0-435v362.499H672.5v-362.5H309.998zm435.001 435v72.499H1035v-72.498H745zm0-145v72.499H1035v-72.5H745zm0-145.001v72.5H1035v-72.5H745zm0-145v72.5H1035v-72.5H745zM154.238 866.74c-7.176 7.177-15.673 10.762-25.488 10.762-9.824 0-18.318-3.585-25.488-10.762-7.179-7.17-10.761-15.665-10.761-25.489v-543.75H165v543.752c0 9.822-3.592 18.318-10.762 25.487zm942.5 0c-7.18 7.177-15.674 10.762-25.488 10.762H231.269c4.152-11.7 6.231-23.788 6.231-36.252V225.004h870v616.249c0 9.825-3.594 18.32-10.762 25.49zM165 152.504v72.5H20V841.25c0 30.213 10.567 55.887 31.72 77.03C72.862 939.435 98.536 950 128.75 950h942.5c30.204 0 55.879-10.567 77.03-31.718 21.144-21.144 31.72-46.817 31.72-77.032V152.5H165z"/>
</svg>
